X: 151
T: Mis Diana Sinclair's Strathspey
B: John Pringle "Collection of Reels Strathspeys & Jigs", 1801 p.15#1
Z: 2011 John Chambers <jc:trillian.mit.edu>
Q: "Slowish"
R: strathspey
M: C
L: 1/8
K: D
V: 1
|:\
D2 A,>D ~F>D A,D | FA (G/F/).E/.D/ B,E (D/C/).B,/.A,/ |\
D2 A,>D ~F>D A,D | FA (G/F/)(E/D/) TE2 {DE}D2 :|
d2Ad fab2 | ~a>fdf {f}e>dTB>c |\
d2Ad fab2 | (b/a/).g/.f/ (g/f/).e/.d/ Te2 {de}d2 |
d>BAd (B/A/).G/.F/ (G/F/).E/.D/ | (E/F/).G/.A/ (B/A/).G/.F/ (G/F/E/D/) {D}B,2 |\
~A,>B,DE ~FAB(c/d/) | (B/A/).G/.F/ (G/F/).E/.D/ E2 {DE}D2 |]
V: 2 clef=bass middle=d
|: Ddfd Ddfd | D2A2 G^GAz | Ddfd Ddfd | zfgG aAdD :|
dfaf dfgG | dfaf afge | dfaf dfgG | ddg^g aAdz |
fgfd D2A2 | G2d2 A2G2 | dgfA dfgz | ddgG aAd2 |]

%%sep 2 1 500

